images/indikatorenset/4953.svg

<?xml version="1.0" standalone="no"?><!DOCTYPE svg PUBLIC "-//W3C//DTD SVG 1.1//EN" "http://www.w3.org/Graphics/SVG/1.1/DTD/svg11.dtd"><svg xmlns:xlink="http://www.w3.org/1999/xlink" version="1.1" class="highcharts-root" style="font-family:arial;font-size:12px;" xmlns="http://www.w3.org/2000/svg" width="485" height="415"><desc>Created with Highstock 5.0.14</desc><defs><clipPath id="highcharts-0kzf6bi-6"><rect x="0" y="0" width="305" height="265" fill="none"></rect></clipPath><clipPath id="highcharts-0kzf6bi-7"><rect x="0" y="0" width="305" height="265" fill="none"></rect></clipPath></defs><rect fill="#fbfbfb" class="highcharts-background" x="0" y="0" width="485" height="415" rx="0" ry="0"></rect><rect fill="none" class="highcharts-plot-background" x="52" y="75" width="305" height="265"></rect><g class="highcharts-pane-group"></g><g class="highcharts-grid highcharts-xaxis-grid "><path fill="none" class="highcharts-grid-line" d="M 153.5 75 L 153.5 340" opacity="1"></path><path fill="none" class="highcharts-grid-line" d="M 254.5 75 L 254.5 340" opacity="1"></path><path fill="none" class="highcharts-grid-line" d="M 356.5 75 L 356.5 340" opacity="1"></path><path fill="none" class="highcharts-grid-line" d="M 51.5 75 L 51.5 340" opacity="1"></path></g><g class="highcharts-grid highcharts-yaxis-grid "><path fill="none" stroke="#B9CFD7" stroke-width="0.5" class="highcharts-grid-line" d="M 52 340.25 L 357 340.25" opacity="1"></path><path fill="none" stroke="#B9CFD7" stroke-width="0.5" class="highcharts-grid-line" d="M 52 252.25 L 357 252.25" opacity="1"></path><path fill="none" stroke="#B9CFD7" stroke-width="0.5" class="highcharts-grid-line" d="M 52 163.25 L 357 163.25" opacity="1"></path><path fill="none" stroke="#B9CFD7" stroke-width="0.5" class="highcharts-grid-line" d="M 52 74.75 L 357 74.75" opacity="1"></path></g><rect fill="none" class="highcharts-plot-border" x="52" y="75" width="305" height="265"></rect><g class="highcharts-axis highcharts-xaxis "><path fill="none" class="highcharts-tick" stroke="#FFFFFF" stroke-width="1" d="M 153.5 340 L 153.5 350" opacity="1"></path><path fill="none" class="highcharts-tick" stroke="#FFFFFF" stroke-width="1" d="M 254.5 340 L 254.5 350" opacity="1"></path><path fill="none" class="highcharts-tick" stroke="#FFFFFF" stroke-width="1" d="M 357.5 340 L 357.5 350" opacity="1"></path><path fill="none" class="highcharts-tick" stroke="#FFFFFF" stroke-width="1" d="M 51.5 340 L 51.5 350" opacity="1"></path><path fill="none" class="highcharts-axis-line" stroke="#B9CFD7" stroke-width="0.5" d="M 52 340.25 L 357 340.25"></path></g><g class="highcharts-axis highcharts-yaxis "><path fill="none" class="highcharts-axis-line" d="M 52 75 L 52 340"></path></g><g class="highcharts-series-group"><g class="highcharts-series highcharts-series-0 highcharts-column-series highcharts-color-undefined " transform="translate(52,75) scale(1 1)" clip-path="url(#highcharts-0kzf6bi-7)"><rect x="28" y="193" width="45" height="73" fill="#DC440E" class="highcharts-point"></rect><rect x="130" y="198" width="45" height="68" fill="#DC440E" class="highcharts-point"></rect><rect x="232" y="207" width="45" height="59" fill="#DC440E" class="highcharts-point"></rect></g><g class="highcharts-markers highcharts-series-0 highcharts-column-series highcharts-color-undefined " transform="translate(52,75) scale(1 1)" clip-path="none"></g><g class="highcharts-series highcharts-series-1 highcharts-column-series highcharts-color-undefined " transform="translate(52,75) scale(1 1)" clip-path="url(#highcharts-0kzf6bi-7)"><rect x="28" y="70" width="45" height="123" fill="#FFBB58" class="highcharts-point"></rect><rect x="130" y="81" width="45" height="117" fill="#FFBB58" class="highcharts-point"></rect><rect x="232" y="105" width="45" height="102" fill="#FFBB58" class="highcharts-point"></rect></g><g class="highcharts-markers highcharts-series-1 highcharts-column-series highcharts-color-undefined " transform="translate(52,75) scale(1 1)" clip-path="none"></g><g class="highcharts-series highcharts-series-2 highcharts-column-series highcharts-color-undefined " transform="translate(52,75) scale(1 1)" clip-path="url(#highcharts-0kzf6bi-7)"><rect x="28" y="32" width="45" height="38" fill="#923F8D" class="highcharts-point"></rect><rect x="130" y="45" width="45" height="36" fill="#923F8D" class="highcharts-point"></rect><rect x="232" y="70" width="45" height="35" fill="#923F8D" class="highcharts-point"></rect></g><g class="highcharts-markers highcharts-series-2 highcharts-column-series highcharts-color-undefined " transform="translate(52,75) scale(1 1)" clip-path="none"></g></g><text x="10" text-anchor="start" class="highcharts-title" style="color:#000000;font-size:14px;font-weight:bold;fill:#000000;" y="21"><tspan>Endenergieverbrauch nach Verbrauchergruppe in Mio. kWh</tspan></text><g class="highcharts-legend" transform="translate(369,164)"><rect fill="none" class="highcharts-legend-box" rx="0" ry="0" x="0" y="0" width="106" height="68" visibility="visible"></rect><g><g><g class="highcharts-legend-item highcharts-column-series highcharts-color-undefined highcharts-series-2" transform="translate(8,3)"><text x="21" style="color:#333333;font-size:12px;font-weight:normal;cursor:pointer;fill:#333333;" text-anchor="start" y="15"><tspan>Verkehr</tspan></text><rect x="2" y="4" width="12" height="12" fill="#923F8D" class="highcharts-point"></rect></g><g class="highcharts-legend-item highcharts-column-series highcharts-color-undefined highcharts-series-1" transform="translate(8,22)"><text x="21" y="15" style="color:#333333;font-size:12px;font-weight:normal;cursor:pointer;fill:#333333;" text-anchor="start"><tspan>Nichtwohnen</tspan></text><rect x="2" y="4" width="12" height="12" fill="#FFBB58" class="highcharts-point"></rect></g><g class="highcharts-legend-item highcharts-column-series highcharts-color-undefined highcharts-series-0" transform="translate(8,41)"><text x="21" y="15" style="color:#333333;font-size:12px;font-weight:normal;cursor:pointer;fill:#333333;" text-anchor="start"><tspan>Wohnen</tspan></text><rect x="2" y="4" width="12" height="12" fill="#DC440E" class="highcharts-point"></rect></g></g></g></g><g class="highcharts-axis-labels highcharts-xaxis-labels "><text x="102.83333333333334" style="color:#000000;cursor:default;font-size:11px;fill:#000000;" text-anchor="middle" transform="translate(0,0)" y="359" opacity="1"><tspan>2010</tspan></text><text x="204.5" style="color:#000000;cursor:default;font-size:11px;fill:#000000;" text-anchor="middle" transform="translate(0,0)" y="359" opacity="1"><tspan>2012</tspan></text><text x="306.1666666666667" style="color:#000000;cursor:default;font-size:11px;fill:#000000;" text-anchor="middle" transform="translate(0,0)" y="359" opacity="1"><tspan>2014</tspan></text></g><g class="highcharts-axis-labels highcharts-yaxis-labels "><text x="37" style="color:#000000;cursor:default;font-size:11px;fill:#000000;" text-anchor="end" transform="translate(0,0)" y="345" opacity="1"><tspan>0</tspan></text><text x="37" style="color:#000000;cursor:default;font-size:11px;fill:#000000;" text-anchor="end" transform="translate(0,0)" y="256" opacity="1"><tspan>2 000</tspan></text><text x="37" style="color:#000000;cursor:default;font-size:11px;fill:#000000;" text-anchor="end" transform="translate(0,0)" y="168" opacity="1"><tspan>4 000</tspan></text><text x="37" style="color:#000000;cursor:default;font-size:11px;fill:#000000;" text-anchor="end" transform="translate(0,0)" y="80" opacity="1"><tspan>6 000</tspan></text></g><text x="10" class="highcharts-credits" text-anchor="start" style="cursor:default;color:#000000;font-size:10px;fill:#000000;" y="400"><tspan>Quelle: Statistisches Amt Basel-Stadt, kantonale Energiestatistik</tspan></text></svg>

<svg class="highcharts-root" xmlns="http://www.w3.org/2000/svg" width="485" height="415" font-family="arial" font-size="12">
    <defs>
        <clipPath id="a">
            <path fill="none" d="M0 0h305v265H0z"/>
        </clipPath>
    </defs>
    <rect fill="#fbfbfb" class="highcharts-background" width="485" height="415" rx="0" ry="0"/>
    <path fill="none" class="highcharts-plot-background" d="M52 75h305v265H52z"/>
    <g class="highcharts-grid highcharts-xaxis-grid">
        <path fill="none" class="highcharts-grid-line" d="M153.5 75v265m101-265v265m102-265v265M51.5 75v265"/>
    </g>
    <g class="highcharts-grid highcharts-yaxis-grid">
        <path fill="none" stroke="#B9CFD7" stroke-width=".5" class="highcharts-grid-line" d="M52 340.25h305m-305-88h305m-305-89h305M52 74.75h305"/>
    </g>
    <path fill="none" class="highcharts-plot-border" d="M52 75h305v265H52z"/>
    <g class="highcharts-axis highcharts-xaxis">
        <path fill="none" class="highcharts-tick" stroke="#FFF" d="M153.5 340v10m101-10v10m103-10v10m-306-10v10"/>
        <path fill="none" class="highcharts-axis-line" stroke="#B9CFD7" stroke-width=".5" d="M52 340.25h305"/>
    </g>
    <g class="highcharts-axis highcharts-yaxis">
        <path fill="none" class="highcharts-axis-line" d="M52 75v265"/>
    </g>
    <g class="highcharts-series-group">
        <g class="highcharts-series highcharts-series-0 highcharts-column-series highcharts-color-undefined" transform="translate(52 75)" clip-path="url(#a)">
            <path fill="#DC440E" class="highcharts-point" d="M28 193h45v73H28zm102 5h45v68h-45zm102 9h45v59h-45z"/>
        </g>
        <g class="highcharts-series highcharts-series-1 highcharts-column-series highcharts-color-undefined" transform="translate(52 75)" clip-path="url(#a)">
            <path fill="#FFBB58" class="highcharts-point" d="M28 70h45v123H28zm102 11h45v117h-45zm102 24h45v102h-45z"/>
        </g>
        <g class="highcharts-series highcharts-series-2 highcharts-column-series highcharts-color-undefined" transform="translate(52 75)" clip-path="url(#a)">
            <path fill="#923F8D" class="highcharts-point" d="M28 32h45v38H28zm102 13h45v36h-45zm102 25h45v35h-45z"/>
        </g>
    </g>
    <text x="10" class="highcharts-title" y="21" color="#000" font-size="14" font-weight="700">
        <tspan>Endenergieverbrauch nach Verbrauchergruppe in Mio. kWh</tspan>
    </text>
    <g class="highcharts-legend" transform="translate(369 164)">
        <rect fill="none" class="highcharts-legend-box" rx="0" ry="0" width="106" height="68"/>
        <g class="highcharts-legend-item highcharts-column-series highcharts-color-undefined highcharts-series-2">
            <text x="21" y="15" color="#333" font-weight="400" cursor="pointer" fill="#333" transform="translate(8 3)">
                <tspan>Verkehr</tspan>
            </text>
            <path fill="#923F8D" class="highcharts-point" d="M10 7h12v12H10z"/>
        </g>
        <g class="highcharts-legend-item highcharts-column-series highcharts-color-undefined highcharts-series-1">
            <text x="21" y="15" color="#333" font-weight="400" cursor="pointer" fill="#333" transform="translate(8 22)">
                <tspan>Nichtwohnen</tspan>
            </text>
            <path fill="#FFBB58" class="highcharts-point" d="M10 26h12v12H10z"/>
        </g>
        <g class="highcharts-legend-item highcharts-column-series highcharts-color-undefined highcharts-series-0">
            <text x="21" y="15" color="#333" font-weight="400" cursor="pointer" fill="#333" transform="translate(8 41)">
                <tspan>Wohnen</tspan>
            </text>
            <path fill="#DC440E" class="highcharts-point" d="M10 45h12v12H10z"/>
        </g>
    </g>
    <g class="highcharts-axis-labels highcharts-xaxis-labels" text-anchor="middle" color="#000" cursor="default" font-size="11">
        <text x="102.833" y="359">
            <tspan>2010</tspan>
        </text>
        <text x="204.5" y="359">
            <tspan>2012</tspan>
        </text>
        <text x="306.167" y="359">
            <tspan>2014</tspan>
        </text>
    </g>
    <g class="highcharts-axis-labels highcharts-yaxis-labels" text-anchor="end" color="#000" cursor="default" font-size="11">
        <text x="37" y="345">
            <tspan>0</tspan>
        </text>
        <text x="37" y="256">
            <tspan>2 000</tspan>
        </text>
        <text x="37" y="168">
            <tspan>4 000</tspan>
        </text>
        <text x="37" y="80">
            <tspan>6 000</tspan>
        </text>
    </g>
    <text x="10" class="highcharts-credits" y="400" cursor="default" color="#000" font-size="10">
        <tspan>Quelle: Statistisches Amt Basel-Stadt, kantonale Energiestatistik</tspan>
    </text>
</svg>
